components/ui-node-icon/src/filter/filter.medium.svg

<svg width="24" height="24" viewBox="0 0 24 24" fill="none" xmlns="http://www.w3.org/2000/svg">
  <path d="M18.0446 4L5.95612 4C5.14035 4 4.66782 4.92416 5.14544 5.58549L10.1217 12.4757C10.3679 12.8166 10.5004 13.2263 10.5004 13.6467L10.5004 19.1315C10.5004 19.9302 11.3905 20.4066 12.0551 19.9635L13.0551 19.2969C13.3333 19.1114 13.5004 18.7992 13.5004 18.4648L13.5004 13.6467C13.5004 13.2263 13.6329 12.8166 13.879 12.4757L18.8553 5.58549C19.3329 4.92416 18.8604 4 18.0446 4Z" fill="var(--tbl--colors--icons--clean--secondary)"/>
  <path d="M13.5004 18.4648L13.5004 13.6467C13.5004 13.2263 13.6329 12.8166 13.879 12.4757L17.8337 7L7.61148 9L10.1217 12.4757C10.3679 12.8166 10.5004 13.2263 10.5004 13.6467L10.5004 19.1315C10.5004 19.9302 11.3905 20.4066 12.0551 19.9635L13.0551 19.2969C13.3333 19.1114 13.5004 18.7992 13.5004 18.4648Z" fill="var(--tbl--colors--icons--clean--primary)"/>
</svg>

<svg xmlns="http://www.w3.org/2000/svg" width="24" height="24" fill="none" viewBox="0 0 24 24">
  <path fill="var(--tbl--colors--icons--clean--secondary)" d="M18.045 4H5.956a1 1 0 0 0-.81 1.585l4.976 6.89a2 2 0 0 1 .378 1.172v5.484a1 1 0 0 0 1.555.832l1-.666a1 1 0 0 0 .445-.832v-4.818a2 2 0 0 1 .379-1.171l4.976-6.89A1 1 0 0 0 18.045 4Z"/>
  <path fill="var(--tbl--colors--icons--clean--primary)" d="M13.5 18.465v-4.818a2 2 0 0 1 .379-1.171L17.834 7 7.61 9l2.51 3.476a2 2 0 0 1 .38 1.17v5.485a1 1 0 0 0 1.554.832l1-.666a1 1 0 0 0 .445-.832Z"/>
</svg>
